X: 3
T: Pauline Conneely’s
S: Angelina Carberry - An Tradisiun Beo
R: reel
M: 4/4
L: 1/8
K: Amix
A,2A,E G,B,DG|FD (3DDD ADFD|EDCA, G,B,DG|FDAD BDAD|
A,2A,A, G,B,DG|FD (3DDD AdFA|c2AG EDCE|1 DFAF GEFD:|2 DFAF GEFA||
|:cAAe EDCE|cAA^G AB=cd|BGGA GEDd|BG (3GGG Bcde|
cA (3AAA EDCF|EDCB, A,CEG|FDAF GGED|1 CEAB ceAB:|2 CEAB cAEC||
